!!!OTL: Zuo junxie
!!!ARE: Asia, China,ÿNingxia Yanchi
!! I, 176
!!!SCT: C1842
!!!YEM: Copyright 1995, estate of Helmut Schaffrath.
**kern
*ICvox
*Ivox
*M2/4
*k[b-e-]
*B-:
{4bb-
8gg
8ff
=1
4bb-
8gg
8ff
=2
4fff
4fff
=3
8fff
8eee-
4ccc}
=4
{4fff
8gg
8bb-
=5
4ccc
4fff
=6
4ff
8gg
8ff
=7
2ff}
=8
{8.ff
16ff
8gg
8bb-
=9
4ccc
8fff
8gg
=10
4ff
8gg
8ff
=11
4ff
4ff}
==
!!!AGN: Xiaodiao
!! Han
!!!ONB: ESAC (Essen Associative Code) Database: SENGANSU
!!!AMT: simple duple
!!!AIN: vox
!!!EED: Helmut Schaffrath
!!!EEV: 1.0
*-
